X: 10897
T: Drowsy Maggie
R: reel
M: 4/4
K: Edorian
|:E2Bd cABE|E2BG FADF|E2Bd cABc|1 dfec dAFD:|2 dfec dAFA||
d2fe dcBd|(3cBA ed ceAc|defe dcBc|def^g aecA|
defe dcBd|(3cBA eA ceAg|fdec dcBa|^gbeg aecA||

